images/Кнопка.svg

<svg width="335" height="75" viewBox="0 0 335 75" fill="none" xmlns="http://www.w3.org/2000/svg">
<rect width="335" height="75" rx="37.5" fill="#DD9428"/>
<path d="M88.4717 44.2C87.3784 44.2 86.3717 44.02 85.4517 43.66C84.5317 43.3 83.7317 42.8 83.0517 42.16C82.3717 41.5067 81.8451 40.7467 81.4717 39.88C81.0984 39 80.9117 38.04 80.9117 37C80.9117 35.96 81.0984 35.0067 81.4717 34.14C81.8451 33.26 82.3717 32.5 83.0517 31.86C83.7317 31.2067 84.5317 30.7 85.4517 30.34C86.3717 29.98 87.3717 29.8 88.4517 29.8C89.5451 29.8 90.5451 29.98 91.4517 30.34C92.3717 30.7 93.1717 31.2067 93.8517 31.86C94.5317 32.5 95.0584 33.26 95.4317 34.14C95.8051 35.0067 95.9917 35.96 95.9917 37C95.9917 38.04 95.8051 39 95.4317 39.88C95.0584 40.76 94.5317 41.52 93.8517 42.16C93.1717 42.8 92.3717 43.3 91.4517 43.66C90.5451 44.02 89.5517 44.2 88.4717 44.2ZM88.4517 41.92C89.1584 41.92 89.8117 41.8 90.4117 41.56C91.0117 41.32 91.5317 40.98 91.9717 40.54C92.4117 40.0867 92.7517 39.5667 92.9917 38.98C93.2451 38.38 93.3717 37.72 93.3717 37C93.3717 36.28 93.2451 35.6267 92.9917 35.04C92.7517 34.44 92.4117 33.92 91.9717 33.48C91.5317 33.0267 91.0117 32.68 90.4117 32.44C89.8117 32.2 89.1584 32.08 88.4517 32.08C87.7451 32.08 87.0917 32.2 86.4917 32.44C85.9051 32.68 85.3851 33.0267 84.9317 33.48C84.4917 33.92 84.1451 34.44 83.8917 35.04C83.6517 35.6267 83.5317 36.28 83.5317 37C83.5317 37.7067 83.6517 38.36 83.8917 38.96C84.1451 39.56 84.4917 40.0867 84.9317 40.54C85.3717 40.98 85.8917 41.32 86.4917 41.56C87.0917 41.8 87.7451 41.92 88.4517 41.92ZM103.446 44.14C102.326 44.14 101.326 43.9067 100.446 43.44C99.5796 42.96 98.8996 42.3067 98.4063 41.48C97.9129 40.6533 97.6663 39.7133 97.6663 38.66C97.6663 37.5933 97.9129 36.6533 98.4063 35.84C98.8996 35.0133 99.5796 34.3667 100.446 33.9C101.326 33.4333 102.326 33.2 103.446 33.2C104.486 33.2 105.4 33.4133 106.186 33.84C106.986 34.2533 107.593 34.8667 108.006 35.68L106.086 36.8C105.766 36.2933 105.373 35.92 104.906 35.68C104.453 35.44 103.96 35.32 103.426 35.32C102.813 35.32 102.26 35.4533 101.766 35.72C101.273 35.9867 100.886 36.3733 100.606 36.88C100.326 37.3733 100.186 37.9667 100.186 38.66C100.186 39.3533 100.326 39.9533 100.606 40.46C100.886 40.9533 101.273 41.3333 101.766 41.6C102.26 41.8667 102.813 42 103.426 42C103.96 42 104.453 41.88 104.906 41.64C105.373 41.4 105.766 41.0267 106.086 40.52L108.006 41.64C107.593 42.44 106.986 43.06 106.186 43.5C105.4 43.9267 104.486 44.14 103.446 44.14ZM112.349 44V34.84L112.929 35.44H108.589V33.32H118.589V35.44H114.269L114.849 34.84V44H112.349ZM126.883 44V41.84L126.743 41.38V37.6C126.743 36.8667 126.523 36.3 126.083 35.9C125.643 35.4867 124.976 35.28 124.083 35.28C123.483 35.28 122.889 35.3733 122.303 35.56C121.729 35.7467 121.243 36.0067 120.843 36.34L119.863 34.52C120.436 34.08 121.116 33.7533 121.903 33.54C122.703 33.3133 123.529 33.2 124.383 33.2C125.929 33.2 127.123 33.5733 127.963 34.32C128.816 35.0533 129.243 36.1933 129.243 37.74V44H126.883ZM123.523 44.14C122.723 44.14 122.023 44.0067 121.423 43.74C120.823 43.46 120.356 43.08 120.023 42.6C119.703 42.1067 119.543 41.5533 119.543 40.94C119.543 40.34 119.683 39.8 119.963 39.32C120.256 38.84 120.729 38.46 121.383 38.18C122.036 37.9 122.903 37.76 123.983 37.76H127.083V39.42H124.163C123.309 39.42 122.736 39.56 122.443 39.84C122.149 40.1067 122.003 40.44 122.003 40.84C122.003 41.2933 122.183 41.6533 122.543 41.92C122.903 42.1867 123.403 42.32 124.043 42.32C124.656 42.32 125.203 42.18 125.683 41.9C126.176 41.62 126.529 41.2067 126.743 40.66L127.163 42.16C126.923 42.7867 126.489 43.2733 125.863 43.62C125.249 43.9667 124.469 44.14 123.523 44.14ZM132.336 44V33.32H137.556C138.85 33.32 139.863 33.56 140.596 34.04C141.343 34.52 141.716 35.2 141.716 36.08C141.716 36.9467 141.37 37.6267 140.676 38.12C139.983 38.6 139.063 38.84 137.916 38.84L138.216 38.22C139.51 38.22 140.47 38.46 141.096 38.94C141.736 39.4067 142.056 40.0933 142.056 41C142.056 41.9467 141.703 42.6867 140.996 43.22C140.29 43.74 139.216 44 137.776 44H132.336ZM134.716 42.18H137.576C138.256 42.18 138.77 42.0733 139.116 41.86C139.463 41.6333 139.636 41.2933 139.636 40.84C139.636 40.36 139.476 40.0067 139.156 39.78C138.836 39.5533 138.336 39.44 137.656 39.44H134.716V42.18ZM134.716 37.78H137.336C137.976 37.78 138.456 37.6667 138.776 37.44C139.11 37.2 139.276 36.8667 139.276 36.44C139.276 36 139.11 35.6733 138.776 35.46C138.456 35.2467 137.976 35.14 137.336 35.14H134.716V37.78ZM144.719 44V33.32H147.219V40.36L153.119 33.32H155.399V44H152.899V36.96L147.019 44H144.719ZM160.982 44V34.84L161.562 35.44H157.222V33.32H167.222V35.44H162.902L163.482 34.84V44H160.982ZM174.395 36.84C175.769 36.84 176.815 37.1467 177.535 37.76C178.255 38.3733 178.615 39.24 178.615 40.36C178.615 41.52 178.215 42.4267 177.415 43.08C176.615 43.72 175.489 44.0333 174.035 44.02L169.035 44V33.32H171.535V36.82L174.395 36.84ZM173.815 42.18C174.549 42.1933 175.109 42.04 175.495 41.72C175.882 41.4 176.075 40.9333 176.075 40.32C176.075 39.7067 175.882 39.2667 175.495 39C175.122 38.72 174.562 38.5733 173.815 38.56L171.535 38.54V42.16L173.815 42.18ZM189.72 44.18C190.707 44.18 191.58 44.04 192.34 43.76C193.113 43.48 193.72 43.0933 194.16 42.6C194.6 42.0933 194.82 41.5133 194.82 40.86C194.82 40.0467 194.48 39.4067 193.8 38.94C193.12 38.46 192.187 38.22 191 38.22L190.92 38.76C191.613 38.76 192.227 38.6467 192.76 38.42C193.307 38.1933 193.733 37.88 194.04 37.48C194.36 37.0667 194.52 36.6067 194.52 36.1C194.52 35.4867 194.3 34.9533 193.86 34.5C193.42 34.0467 192.82 33.7 192.06 33.46C191.3 33.22 190.433 33.12 189.46 33.16C188.82 33.1733 188.173 33.2667 187.52 33.44C186.88 33.6 186.22 33.8333 185.54 34.14L186.18 35.98C186.767 35.7267 187.34 35.5333 187.9 35.4C188.473 35.2667 189.027 35.2 189.56 35.2C190.067 35.2 190.5 35.2533 190.86 35.36C191.22 35.4533 191.493 35.6 191.68 35.8C191.88 35.9867 191.98 36.2067 191.98 36.46C191.98 36.7133 191.9 36.9333 191.74 37.12C191.58 37.3067 191.347 37.4467 191.04 37.54C190.747 37.6333 190.387 37.68 189.96 37.68H188.1V39.36H190.16C190.84 39.36 191.36 39.4733 191.72 39.7C192.093 39.9133 192.28 40.2333 192.28 40.66C192.28 40.9533 192.167 41.2133 191.94 41.44C191.727 41.6667 191.42 41.84 191.02 41.96C190.62 42.0667 190.14 42.12 189.58 42.12C188.927 42.12 188.273 42.04 187.62 41.88C186.967 41.72 186.38 41.4933 185.86 41.2L185.16 43.06C185.8 43.42 186.513 43.7 187.3 43.9C188.1 44.0867 188.907 44.18 189.72 44.18ZM203.875 44V41.84L203.735 41.38V37.6C203.735 36.8667 203.515 36.3 203.075 35.9C202.635 35.4867 201.968 35.28 201.075 35.28C200.475 35.28 199.882 35.3733 199.295 35.56C198.722 35.7467 198.235 36.0067 197.835 36.34L196.855 34.52C197.428 34.08 198.108 33.7533 198.895 33.54C199.695 33.3133 200.522 33.2 201.375 33.2C202.922 33.2 204.115 33.5733 204.955 34.32C205.808 35.0533 206.235 36.1933 206.235 37.74V44H203.875ZM200.515 44.14C199.715 44.14 199.015 44.0067 198.415 43.74C197.815 43.46 197.348 43.08 197.015 42.6C196.695 42.1067 196.535 41.5533 196.535 40.94C196.535 40.34 196.675 39.8 196.955 39.32C197.248 38.84 197.722 38.46 198.375 38.18C199.028 37.9 199.895 37.76 200.975 37.76H204.075V39.42H201.155C200.302 39.42 199.728 39.56 199.435 39.84C199.142 40.1067 198.995 40.44 198.995 40.84C198.995 41.2933 199.175 41.6533 199.535 41.92C199.895 42.1867 200.395 42.32 201.035 42.32C201.648 42.32 202.195 42.18 202.675 41.9C203.168 41.62 203.522 41.2067 203.735 40.66L204.155 42.16C203.915 42.7867 203.482 43.2733 202.855 43.62C202.242 43.9667 201.462 44.14 200.515 44.14ZM216.108 44V40.36L216.468 40.78H213.268C211.802 40.78 210.648 40.4733 209.808 39.86C208.982 39.2333 208.568 38.3333 208.568 37.16C208.568 35.9067 209.008 34.9533 209.888 34.3C210.782 33.6467 211.968 33.32 213.448 33.32H218.348V44H216.108ZM208.428 44L211.308 39.92H213.868L211.108 44H208.428ZM216.108 39.56V34.76L216.468 35.42H213.528C212.755 35.42 212.155 35.5667 211.728 35.86C211.315 36.14 211.108 36.6 211.108 37.24C211.108 38.44 211.888 39.04 213.448 39.04H216.468L216.108 39.56ZM221.711 44V33.32H226.931C228.225 33.32 229.238 33.56 229.971 34.04C230.718 34.52 231.091 35.2 231.091 36.08C231.091 36.9467 230.745 37.6267 230.051 38.12C229.358 38.6 228.438 38.84 227.291 38.84L227.591 38.22C228.885 38.22 229.845 38.46 230.471 38.94C231.111 39.4067 231.431 40.0933 231.431 41C231.431 41.9467 231.078 42.6867 230.371 43.22C229.665 43.74 228.591 44 227.151 44H221.711ZM224.091 42.18H226.951C227.631 42.18 228.145 42.0733 228.491 41.86C228.838 41.6333 229.011 41.2933 229.011 40.84C229.011 40.36 228.851 40.0067 228.531 39.78C228.211 39.5533 227.711 39.44 227.031 39.44H224.091V42.18ZM224.091 37.78H226.711C227.351 37.78 227.831 37.6667 228.151 37.44C228.485 37.2 228.651 36.8667 228.651 36.44C228.651 36 228.485 35.6733 228.151 35.46C227.831 35.2467 227.351 35.14 226.711 35.14H224.091V37.78ZM241.754 44L237.894 38.88L239.934 37.62L244.694 44H241.754ZM234.094 44V33.32H236.594V44H234.094ZM235.854 39.72V37.64H239.474V39.72H235.854ZM240.174 38.96L237.834 38.68L241.754 33.32H244.434L240.174 38.96ZM246.812 48.02C246.292 48.02 245.772 47.9333 245.252 47.76C244.732 47.5867 244.299 47.3467 243.952 47.04L244.952 45.2C245.205 45.4267 245.492 45.6067 245.812 45.74C246.132 45.8733 246.459 45.94 246.792 45.94C247.245 45.94 247.612 45.8267 247.892 45.6C248.172 45.3733 248.432 44.9933 248.672 44.46L249.292 43.06L249.492 42.76L253.532 33.32H255.932L250.932 44.86C250.599 45.66 250.225 46.2933 249.812 46.76C249.412 47.2267 248.959 47.5533 248.452 47.74C247.959 47.9267 247.412 48.02 246.812 48.02ZM249.012 44.38L244.192 33.32H246.792L250.712 42.54L249.012 44.38Z" fill="#331111"/>
</svg>

<svg xmlns="http://www.w3.org/2000/svg" width="335" height="75" fill="none"><rect width="335" height="75" fill="#DD9428" rx="37.5"/><path fill="#311" d="M88.472 44.2c-1.094 0-2.1-.18-3.02-.54a7.39 7.39 0 0 1-2.4-1.5 6.936 6.936 0 0 1-1.58-2.28c-.374-.88-.56-1.84-.56-2.88 0-1.04.186-1.993.56-2.86.373-.88.9-1.64 1.58-2.28a7.22 7.22 0 0 1 2.4-1.52c.92-.36 1.92-.54 3-.54 1.093 0 2.093.18 3 .54.92.36 1.72.867 2.4 1.52a6.67 6.67 0 0 1 1.58 2.28c.373.867.56 1.82.56 2.86 0 1.04-.187 2-.56 2.88a6.67 6.67 0 0 1-1.58 2.28 7.39 7.39 0 0 1-2.4 1.5c-.907.36-1.9.54-2.98.54Zm-.02-2.28c.706 0 1.36-.12 1.96-.36.6-.24 1.12-.58 1.56-1.02.44-.453.78-.973 1.02-1.56.253-.6.38-1.26.38-1.98s-.127-1.373-.38-1.96a4.59 4.59 0 0 0-1.02-1.56c-.44-.453-.96-.8-1.56-1.04a5.23 5.23 0 0 0-1.96-.36c-.707 0-1.36.12-1.96.36a4.709 4.709 0 0 0-1.56 1.04c-.44.44-.787.96-1.04 1.56-.24.587-.36 1.24-.36 1.96 0 .707.12 1.36.36 1.96.253.6.6 1.127 1.04 1.58.44.44.96.78 1.56 1.02.6.24 1.253.36 1.96.36Zm14.994 2.22c-1.12 0-2.12-.233-3-.7a5.34 5.34 0 0 1-2.04-1.96c-.493-.827-.74-1.767-.74-2.82 0-1.067.247-2.007.74-2.82a5.196 5.196 0 0 1 2.04-1.94c.88-.467 1.88-.7 3-.7 1.04 0 1.954.213 2.74.64a4.117 4.117 0 0 1 1.82 1.84l-1.92 1.12c-.32-.507-.713-.88-1.18-1.12a3.112 3.112 0 0 0-1.48-.36c-.613 0-1.166.133-1.66.4a2.86 2.86 0 0 0-1.16 1.16c-.28.493-.42 1.087-.42 1.78 0 .693.14 1.293.42 1.8.28.493.667.873 1.16 1.14.494.267 1.047.4 1.66.4.534 0 1.027-.12 1.48-.36.467-.24.86-.613 1.18-1.12l1.92 1.12c-.413.8-1.02 1.42-1.82 1.86-.786.427-1.7.64-2.74.64Zm8.903-.14v-9.16l.58.6h-4.34v-2.12h10v2.12h-4.32l.58-.6V44h-2.5Zm14.534 0v-2.16l-.14-.46V37.6c0-.733-.22-1.3-.66-1.7-.44-.413-1.107-.62-2-.62-.6 0-1.194.093-1.78.28a4.356 4.356 0 0 0-1.46.78l-.98-1.82c.573-.44 1.253-.767 2.04-.98.8-.227 1.626-.34 2.48-.34 1.546 0 2.74.373 3.58 1.12.853.733 1.28 1.873 1.28 3.42V44h-2.36Zm-3.36.14c-.8 0-1.5-.133-2.1-.4-.6-.28-1.067-.66-1.4-1.14a2.985 2.985 0 0 1-.48-1.66c0-.6.14-1.14.42-1.62.293-.48.766-.86 1.42-1.14.653-.28 1.52-.42 2.6-.42h3.1v1.66h-2.92c-.854 0-1.427.14-1.72.42-.294.267-.44.6-.44 1 0 .453.18.813.54 1.08.36.267.86.4 1.5.4.613 0 1.16-.14 1.64-.42.493-.28.846-.693 1.06-1.24l.42 1.5c-.24.627-.674 1.113-1.3 1.46-.614.347-1.394.52-2.34.52Zm8.813-.14V33.32h5.22c1.294 0 2.307.24 3.04.72.747.48 1.12 1.16 1.12 2.04 0 .867-.346 1.547-1.04 2.04-.693.48-1.613.72-2.76.72l.3-.62c1.294 0 2.254.24 2.88.72.64.467.96 1.153.96 2.06 0 .947-.353 1.687-1.06 2.22-.706.52-1.78.78-3.22.78h-5.44Zm2.38-1.82h2.86c.68 0 1.194-.107 1.54-.32.347-.227.52-.567.52-1.02 0-.48-.16-.833-.48-1.06-.32-.227-.82-.34-1.5-.34h-2.94v2.74Zm0-4.4h2.62c.64 0 1.12-.113 1.44-.34.334-.24.5-.573.5-1 0-.44-.166-.767-.5-.98-.32-.213-.8-.32-1.44-.32h-2.62v2.64ZM144.719 44V33.32h2.5v7.04l5.9-7.04h2.28V44h-2.5v-7.04l-5.88 7.04h-2.3Zm16.263 0v-9.16l.58.6h-4.34v-2.12h10v2.12h-4.32l.58-.6V44h-2.5Zm13.413-7.16c1.374 0 2.42.307 3.14.92.72.613 1.08 1.48 1.08 2.6 0 1.16-.4 2.067-1.2 2.72-.8.64-1.926.953-3.38.94l-5-.02V33.32h2.5v3.5l2.86.02Zm-.58 5.34c.734.013 1.294-.14 1.68-.46.387-.32.58-.787.58-1.4 0-.613-.193-1.053-.58-1.32-.373-.28-.933-.427-1.68-.44l-2.28-.02v3.62l2.28.02Zm15.905 2c.987 0 1.86-.14 2.62-.42.773-.28 1.38-.667 1.82-1.16.44-.507.66-1.087.66-1.74 0-.813-.34-1.453-1.02-1.92-.68-.48-1.613-.72-2.8-.72l-.08.54c.693 0 1.307-.113 1.84-.34.547-.227.973-.54 1.28-.94a2.2 2.2 0 0 0 .48-1.38c0-.613-.22-1.147-.66-1.6-.44-.453-1.04-.8-1.8-1.04s-1.627-.34-2.6-.3a8.21 8.21 0 0 0-1.94.28c-.64.16-1.3.393-1.98.7l.64 1.84c.587-.253 1.16-.447 1.72-.58a7.325 7.325 0 0 1 1.66-.2c.507 0 .94.053 1.3.16.36.093.633.24.82.44.2.187.3.407.3.66 0 .253-.08.473-.24.66-.16.187-.393.327-.7.42-.293.093-.653.14-1.08.14h-1.86v1.68h2.06c.68 0 1.2.113 1.56.34.373.213.56.533.56.96 0 .293-.113.553-.34.78-.213.227-.52.4-.92.52-.4.107-.88.16-1.44.16-.653 0-1.307-.08-1.96-.24a6.914 6.914 0 0 1-1.76-.68l-.7 1.86c.64.36 1.353.64 2.14.84.8.187 1.607.28 2.42.28Zm14.155-.18v-2.16l-.14-.46V37.6c0-.733-.22-1.3-.66-1.7-.44-.413-1.107-.62-2-.62-.6 0-1.193.093-1.78.28a4.366 4.366 0 0 0-1.46.78l-.98-1.82c.573-.44 1.253-.767 2.04-.98.8-.227 1.627-.34 2.48-.34 1.547 0 2.74.373 3.58 1.12.853.733 1.28 1.873 1.28 3.42V44h-2.36Zm-3.36.14c-.8 0-1.5-.133-2.1-.4-.6-.28-1.067-.66-1.4-1.14a2.985 2.985 0 0 1-.48-1.66c0-.6.14-1.14.42-1.62.293-.48.767-.86 1.42-1.14.653-.28 1.52-.42 2.6-.42h3.1v1.66h-2.92c-.853 0-1.427.14-1.72.42-.293.267-.44.6-.44 1 0 .453.18.813.54 1.08.36.267.86.4 1.5.4.613 0 1.16-.14 1.64-.42a2.37 2.37 0 0 0 1.06-1.24l.42 1.5c-.24.627-.673 1.113-1.3 1.46-.613.347-1.393.52-2.34.52Zm15.593-.14v-3.64l.36.42h-3.2c-1.466 0-2.62-.307-3.46-.92-.826-.627-1.24-1.527-1.24-2.7 0-1.253.44-2.207 1.32-2.86.894-.653 2.08-.98 3.56-.98h4.9V44h-2.24Zm-7.68 0 2.88-4.08h2.56l-2.76 4.08h-2.68Zm7.68-4.44v-4.8l.36.66h-2.94c-.773 0-1.373.147-1.8.44-.413.28-.62.74-.62 1.38 0 1.2.78 1.8 2.34 1.8h3.02l-.36.52Zm5.603 4.44V33.32h5.22c1.294 0 2.307.24 3.04.72.747.48 1.12 1.16 1.12 2.04 0 .867-.346 1.547-1.04 2.04-.693.48-1.613.72-2.76.72l.3-.62c1.294 0 2.254.24 2.88.72.64.467.96 1.153.96 2.06 0 .947-.353 1.687-1.06 2.22-.706.52-1.78.78-3.22.78h-5.44Zm2.38-1.82h2.86c.68 0 1.194-.107 1.54-.32.347-.227.52-.567.52-1.02 0-.48-.16-.833-.48-1.06-.32-.227-.82-.34-1.5-.34h-2.94v2.74Zm0-4.4h2.62c.64 0 1.12-.113 1.44-.34.334-.24.5-.573.5-1 0-.44-.166-.767-.5-.98-.32-.213-.8-.32-1.44-.32h-2.62v2.64ZM241.754 44l-3.86-5.12 2.04-1.26 4.76 6.38h-2.94Zm-7.66 0V33.32h2.5V44h-2.5Zm1.76-4.28v-2.08h3.62v2.08h-3.62Zm4.32-.76-2.34-.28 3.92-5.36h2.68l-4.26 5.64Zm6.638 9.06c-.52 0-1.04-.087-1.56-.26-.52-.173-.953-.413-1.3-.72l1-1.84c.253.227.54.407.86.54.32.133.647.2.98.2.453 0 .82-.113 1.1-.34.28-.227.54-.607.78-1.14l.62-1.4.2-.3 4.04-9.44h2.4l-5 11.54c-.333.8-.707 1.433-1.12 1.9-.4.467-.853.793-1.36.98a4.6 4.6 0 0 1-1.64.28Zm2.2-3.64-4.82-11.06h2.6l3.92 9.22-1.7 1.84Z"/></svg>
